!!!OTL: HERR BRUDER DIR ZU EHREN
!!!ARE: Europa, Mitteleuropa, Deutschland
!!!SCT: F0546
!!!YEM: Copyright 1995, estate of Helmut Schaffrath.
**kern
*ICvox
*Ivox
*M3/8
*k[f#c#]
*D:
{8d
=1
4D
8E
=2
4F#
8G
=3
8A
8F#}
{8D
=4
4d
8c#
=5
4B
8A
=6
8A
8G}
{8F#
=7
4E
8E
=8
8d
8B
8G#
=9
4A
8r}
=10
{4r
8A
=11
4d
8c#
=12
4B
8A
=13
8A
8G}
{8F#
=14
4B
8A
=15
4A
8G
=16
8G
8F#}
{8A
=17
4D
8D
=18
4F#
8A
=19
4d}
{16c#
16B
=20
4A
8A
=21
4B
16A
16G
=22
4F#
8F#}
=23
{8A
8B
8A
=24
8A
8B
8c#
=25
4d}
==
!!!AGN: Studenten -, Trink - Lied
!!!ONB: ESAC (Essen Associative Code) Database: FINK
!!!AMT: simple triple
!!!AIN: vox
!!!EED: Helmut Schaffrath
!!!EEV: 1.0
*-
